packages/core/src/svgs/allin.svg

<svg width="24" height="24" viewBox="0 0 24 24" fill="none" xmlns="http://www.w3.org/2000/svg">
<g clip-path="url(#clip0_31_5878)">
<path d="M0 0H24V24H0V0Z" fill="#08465F"/>
<path fill-rule="evenodd" clip-rule="evenodd" d="M4.28564 18H7.67564L8.17279 16.2857H12.3985L12.8956 18H16.2856L12.1928 6H8.3785L4.28564 18ZM11.5714 13.7143L10.2856 9.39L8.99993 13.7143H11.5714Z" fill="url(#paint0_linear_31_5878)"/>
<path d="M15 6H18V18H15V6Z" fill="#77EBEF"/>
</g>
<defs>
<linearGradient id="paint0_linear_31_5878" x1="5.6485" y1="15" x2="15.1928" y2="15" gradientUnits="userSpaceOnUse">
<stop stop-color="#FDFEFF"/>
<stop offset="0.69" stop-color="#E2FAFC"/>
<stop offset="1" stop-color="#7AEBEF"/>
</linearGradient>
<clipPath id="clip0_31_5878">
<rect width="24" height="24" fill="white"/>
</clipPath>
</defs>
</svg>

<svg xmlns="http://www.w3.org/2000/svg" width="24" height="24" fill="none" viewBox="0 0 24 24"><g clip-path="url(#a)"><path fill="#08465F" d="M0 0h24v24H0z"/><path fill="url(#b)" fill-rule="evenodd" d="M4.286 18h3.39l.497-1.714h4.226L12.896 18h3.39L12.193 6H8.379zm7.285-4.286L10.286 9.39 9 13.714z" clip-rule="evenodd"/><path fill="#77EBEF" d="M15 6h3v12h-3z"/></g><defs><linearGradient id="b" x1="5.649" x2="15.193" y1="15" y2="15" gradientUnits="userSpaceOnUse"><stop stop-color="#FDFEFF"/><stop offset=".69" stop-color="#E2FAFC"/><stop offset="1" stop-color="#7AEBEF"/></linearGradient><clipPath id="a"><path fill="#fff" d="M0 0h24v24H0z"/></clipPath></defs></svg>
